mimes/16/audio-x-generic.svg

<?xml version="1.0" encoding="UTF-8" standalone="no"?>
<svg
   xmlns:dc="http://purl.org/dc/elements/1.1/"
   xmlns:cc="http://creativecommons.org/ns#"
   xmlns:rdf="http://www.w3.org/1999/02/22-rdf-syntax-ns#"
   xmlns:svg="http://www.w3.org/2000/svg"
   xmlns="http://www.w3.org/2000/svg"
   xmlns:xlink="http://www.w3.org/1999/xlink"
   version="1.1"
   width="16"
   height="16"
   id="svg3917">
  <defs
     id="defs3919">
    <linearGradient
       x1="-51.786404"
       y1="50.786446"
       x2="-51.786404"
       y2="2.9062471"
       id="linearGradient3863"
       xlink:href="#linearGradient3104-6-2"
       gradientUnits="userSpaceOnUse"
       gradientTransform="matrix(0.25630299,0,0,0.28357583,19.23936,-0.0749084)" />
    <linearGradient
       id="linearGradient3104-6-2">
      <stop
         id="stop3106-3-4"
         style="stop-color:#000000;stop-opacity:0.31782946"
         offset="0" />
      <stop
         id="stop3108-9-9"
         style="stop-color:#000000;stop-opacity:0.24031007"
         offset="1" />
    </linearGradient>
    <linearGradient
       x1="23.99999"
       y1="7.13907"
       x2="23.99999"
       y2="40.861012"
       id="linearGradient3128"
       xlink:href="#linearGradient3924-4-8"
       gradientUnits="userSpaceOnUse"
       gradientTransform="matrix(0.2972973,0,0,0.2972973,0.86486647,0.86486755)" />
    <linearGradient
       id="linearGradient3924-4-8">
      <stop
         id="stop3926-0-4"
         style="stop-color:#ffffff;stop-opacity:1"
         offset="0" />
      <stop
         id="stop3928-6-8"
         style="stop-color:#ffffff;stop-opacity:0.23529412"
         offset="0.00677974" />
      <stop
         id="stop3930-2-1"
         style="stop-color:#ffffff;stop-opacity:0.15686275"
         offset="0.99050254" />
      <stop
         id="stop3932-9-0"
         style="stop-color:#ffffff;stop-opacity:0.39215687"
         offset="1" />
    </linearGradient>
    <linearGradient
       x1="16.626165"
       y1="15.298182"
       x2="20.054544"
       y2="24.627615"
       id="linearGradient3137"
       xlink:href="#linearGradient8265-821-176-38-919-66-249-7-7"
       gradientUnits="userSpaceOnUse"
       gradientTransform="matrix(0.2605204,0,0,0.43374453,1.7353306,-0.4776389)" />
    <linearGradient
       id="linearGradient8265-821-176-38-919-66-249-7-7">
      <stop
         id="stop2687-1-9"
         style="stop-color:#ffffff;stop-opacity:1"
         offset="0" />
      <stop
         id="stop2689-5-4"
         style="stop-color:#ffffff;stop-opacity:0"
         offset="1" />
    </linearGradient>
    <linearGradient
       id="linearGradient3600-9-9">
      <stop
         id="stop3602-3-7"
         style="stop-color:#f4f4f4;stop-opacity:1"
         offset="0" />
      <stop
         id="stop3604-7-3"
         style="stop-color:#dbdbdb;stop-opacity:1"
         offset="1" />
    </linearGradient>
    <linearGradient
       x1="25.132275"
       y1="0.98520643"
       x2="25.132275"
       y2="47.013336"
       id="linearGradient3915"
       xlink:href="#linearGradient3600-9-9"
       gradientUnits="userSpaceOnUse"
       gradientTransform="matrix(0.2867526,0,0,0.27496131,1.1179376,0.97906881)" />
  </defs>
  <metadata
     id="metadata3922">
    <rdf:RDF>
      <cc:Work
         rdf:about="">
        <dc:format>image/svg+xml</dc:format>
        <dc:type
           rdf:resource="http://purl.org/dc/dcmitype/StillImage" />
        <dc:title />
      </cc:Work>
    </rdf:RDF>
  </metadata>
  <g
     id="layer1">
    <rect
       width="12"
       height="12"
       x="2"
       y="2"
       id="rect5505-21-8-5"
       style="color:#000000;fill:url(#linearGradient3915);fill-opacity:1;fill-rule:nonzero;stroke:none;stroke-width:0.99999994;marker:none;visibility:visible;display:inline;overflow:visible;enable-background:accumulate" />
    <path
       d="M 2,2.0000005 2.00398,10 C 2.3491899,9.9919004 13.737978,7.0510311 14,6.9095702 l 0,-4.9095698 z"
       id="path3333"
       style="opacity:0.4;fill:url(#linearGradient3137);fill-opacity:1;fill-rule:evenodd;stroke:none" />
    <path
       d="M 8.4460576,3.0009021 C 8.0205197,2.976884 7.9550899,3.4376629 8,3.7436676 L 8,9.7577102 C 7.7389486,9.7028553 7.3983308,9.7263068 7.1040162,9.8131512 6.2197099,10.048414 5.4335562,10.847877 5.5064711,11.768817 c 0.1021941,0.862408 1.1239334,1.425071 1.9662982,1.168943 0.9542645,-0.225906 1.5075441,-1.055033 1.5075441,-2.125189 l 0,-4.7611269 c 0.7927638,0.4191605 1.5066556,1.2024363 1.4903426,2.1252211 0.0086,0.6670359 -0.178415,1.3340719 -0.442652,1.9412628 -0.035555,0.0733 0.04188,0.14513 0.09903,0.172957 0.153015,0.04274 0.232515,-0.15786 0.318996,-0.25231 C 11.366989,8.8037934 11.426564,6.9891585 10.432523,5.7760095 10.079747,5.3452118 9.620324,4.9783104 9.379728,4.4779387 9.1388655,4.0930845 8.9862187,3.6576738 8.9120504,3.2185275 8.8148902,3.0597989 8.6296399,2.999443 8.4460576,3.0009021 z"
       id="path3926-0"
       style="opacity:0.3;color:#000000;fill:#ffffff;fill-opacity:1;fill-rule:nonzero;stroke:none;stroke-width:1;marker:none;visibility:visible;display:inline;overflow:visible;enable-background:accumulate" />
    <path
       d="M 8.4460576,2.0009026 C 8.0205197,1.9768845 7.9550899,2.4376634 8,2.7436681 L 8,8.7577107 C 7.7389486,8.7028558 7.3983308,8.7263073 7.1040162,8.8131517 6.2197099,9.0484143 5.4335562,9.8478773 5.5064711,10.768818 c 0.1021941,0.862407 1.1239334,1.42507 1.9662982,1.168942 0.9542645,-0.225906 1.5075441,-1.055032 1.5075441,-2.1251887 l 0,-4.7611267 c 0.7927638,0.4191605 1.5066556,1.2024363 1.4903426,2.1252211 0.0086,0.6670359 -0.178415,1.3340719 -0.442652,1.9412626 -0.035555,0.0733 0.04188,0.14513 0.09903,0.172957 0.153015,0.04274 0.232515,-0.15786 0.318996,-0.25231 C 11.366989,7.8037939 11.426564,5.989159 10.432523,4.77601 10.079747,4.3452123 9.620324,3.9783109 9.379728,3.4779392 9.1388655,3.093085 8.9862187,2.6576743 8.9120504,2.218528 8.8148902,2.0597994 8.6296399,1.9994435 8.4460576,2.0009026 z"
       id="path3926"
       style="opacity:0.2;color:#000000;fill:#000000;fill-opacity:1;fill-rule:nonzero;stroke:none;stroke-width:1;marker:none;visibility:visible;display:inline;overflow:visible;enable-background:accumulate" />
    <rect
       width="11"
       height="11"
       x="2.5"
       y="2.5"
       id="rect6741-0-3"
       style="fill:none;stroke:url(#linearGradient3128);stroke-width:1;stroke-linecap:round;stroke-linejoin:miter;stroke-miterlimit:4;stroke-opacity:1;stroke-dasharray:none;stroke-dashoffset:0" />
    <rect
       width="13.000078"
       height="13.000078"
       x="1.4999609"
       y="1.4999609"
       id="rect5505-21-8-6"
       style="color:#000000;fill:none;stroke:url(#linearGradient3863);stroke-width:0.9999218;stroke-linecap:butt;stroke-linejoin:round;stroke-miterlimit:4;stroke-opacity:1;stroke-dasharray:none;stroke-dashoffset:0;marker:none;visibility:visible;display:inline;overflow:visible;enable-background:accumulate" />
  </g>
</svg>

<svg xmlns="http://www.w3.org/2000/svg" xmlns:xlink="http://www.w3.org/1999/xlink" viewBox="0 0 16 16"><defs><linearGradient x1="-51.786" y1="50.786" x2="-51.786" y2="2.906" id="h" xlink:href="#a" gradientUnits="userSpaceOnUse" gradientTransform="matrix(.2563 0 0 .28358 19.24 -.075)"/><linearGradient id="a"><stop offset="0" stop-opacity=".318"/><stop offset="1" stop-opacity=".24"/></linearGradient><linearGradient x1="24" y1="7.139" x2="24" y2="40.861" id="g" xlink:href="#b" gradientUnits="userSpaceOnUse" gradientTransform="translate(.865 .865) scale(.2973)"/><linearGradient id="b"><stop offset="0" stop-color="#fff"/><stop offset=".007" stop-color="#fff" stop-opacity=".235"/><stop offset=".991" stop-color="#fff" stop-opacity=".157"/><stop offset="1" stop-color="#fff" stop-opacity=".392"/></linearGradient><linearGradient x1="16.626" y1="15.298" x2="20.055" y2="24.628" id="f" xlink:href="#c" gradientUnits="userSpaceOnUse" gradientTransform="matrix(.26052 0 0 .43374 1.735 -.478)"/><linearGradient id="c"><stop offset="0" stop-color="#fff"/><stop offset="1" stop-color="#fff" stop-opacity="0"/></linearGradient><linearGradient id="d"><stop offset="0" stop-color="#f4f4f4"/><stop offset="1" stop-color="#dbdbdb"/></linearGradient><linearGradient x1="25.132" y1=".985" x2="25.132" y2="47.013" id="e" xlink:href="#d" gradientUnits="userSpaceOnUse" gradientTransform="matrix(.28675 0 0 .27496 1.118 .98)"/></defs><path color="#000" fill="url(#e)" overflow="visible" d="M2 2h12v12H2z"/><path d="M2 2l.004 8C2.35 9.992 13.738 7.05 14 6.91V2z" opacity=".4" fill="url(#f)" fill-rule="evenodd"/><path d="M8.446 3c-.425-.023-.49.438-.446.744v6.014a1.95 1.95 0 0 0-.896.055c-.884.235-1.67 1.035-1.598 1.956.103.86 1.124 1.422 1.967 1.166.954-.226 1.507-1.055 1.507-2.125V6.05c.793.42 1.507 1.204 1.49 2.127.01.667-.178 1.334-.442 1.94-.036.074.042.146.1.174.152.046.232-.155.318-.25.92-1.234.98-3.05-.013-4.262-.353-.43-.813-.798-1.053-1.298a3.467 3.467 0 0 1-.468-1.26C8.815 3.06 8.63 3 8.446 3z" opacity=".3" color="#000" fill="#fff" overflow="visible"/><path d="M8.446 2c-.425-.023-.49.438-.446.744v6.014a1.95 1.95 0 0 0-.896.055c-.884.235-1.67 1.035-1.598 1.956.103.86 1.124 1.422 1.967 1.166.954-.226 1.507-1.055 1.507-2.125V5.05c.793.42 1.507 1.204 1.49 2.127.01.667-.178 1.334-.442 1.94-.036.074.042.146.1.174.152.046.232-.155.318-.25.92-1.234.98-3.05-.013-4.262-.353-.43-.813-.798-1.053-1.298a3.467 3.467 0 0 1-.468-1.26C8.815 2.06 8.63 2 8.446 2z" opacity=".2" color="#000" overflow="visible"/><path fill="none" stroke="url(#g)" stroke-linecap="round" d="M2.5 2.5h11v11h-11z"/><path color="#000" fill="none" stroke="url(#h)" stroke-linejoin="round" overflow="visible" d="M1.5 1.5h13v13h-13z"/></svg>
